static/fa/svgs/solid/snowplow.svg

<svg xmlns="http://www.w3.org/2000/svg" viewBox="0 0 640 512"><!--! Font Awesome Free 6.1.1 by @fontawesome - https://fontawesome.com License - https://fontawesome.com/license/free (Icons: CC BY 4.0, Fonts: SIL OFL 1.1, Code: MIT License) Copyright 2022 Fonticons, Inc.--><path d="M144 400c0 13.3-10.7 24-24 24s-24-10.7-24-24 10.7-24 24-24 24 10.7 24 24zm192 0c0-13.3 10.7-24 24-24s24 10.7 24 24-10.7 24-24 24-24-10.7-24-24zm-32 0c0 13.3-10.7 24-24 24s-24-10.7-24-24 10.7-24 24-24 24 10.7 24 24zm-128 0c0-13.3 10.7-24 24-24s24 10.7 24 24-10.7 24-24 24-24-10.7-24-24zm271.4-150.4c.4 2.3.7 4.7.6 7.1V288h64v-52.8c0-14.5 4.9-28.6 14-40l57-71.2c11.1-13.8 31.2-16.9 44.1-5 14.7 11.1 16.9 31.2 5 44.1L576 235.2v167.5l54.6 54.7c12.5 12.5 12.5 32.7 0 45.2s-32.7 12.5-45.2 0L530.7 448c-12-12.9-18.7-28.3-18.7-45.3V352h-42.8c6.9 14.5 10.8 30.8 10.8 48 0 61.9-50.1 112-112 112H112C50.14 512 0 461.9 0 400c0-44.7 26.16-83.2 64-101.2V192c0-17.7 14.33-32 32-32h32V48c0-26.51 21.5-48 48-48h122.9c25.6 0 48.7 15.26 58.8 38.79l87.4 203.91c1 2.2 1.8 4.5 2.3 6.9zM298.9 64H192v96l64 64h111.5L298.9 64zM368 352H112c-26.51 0-48 21.5-48 48s21.49 48 48 48h256c26.5 0 48-21.5 48-48s-21.5-48-48-48z"/></svg>

<svg xmlns="http://www.w3.org/2000/svg" viewBox="0 0 640 512"><!--! Font Awesome Free 6.1.1 by @fontawesome - https://fontawesome.com License - https://fontawesome.com/license/free (Icons: CC BY 4.0, Fonts: SIL OFL 1.1, Code: MIT License) Copyright 2022 Fonticons, Inc. --><path d="M144 400C144 413.3 133.3 424 120 424C106.7 424 96 413.3 96 400C96 386.7 106.7 376 120 376C133.3 376 144 386.7 144 400zM336 400C336 386.7 346.7 376 360 376C373.3 376 384 386.7 384 400C384 413.3 373.3 424 360 424C346.7 424 336 413.3 336 400zM304 400C304 413.3 293.3 424 280 424C266.7 424 256 413.3 256 400C256 386.7 266.7 376 280 376C293.3 376 304 386.7 304 400zM176 400C176 386.7 186.7 376 200 376C213.3 376 224 386.7 224 400C224 413.3 213.3 424 200 424C186.7 424 176 413.3 176 400zM447.4 249.6C447.8 251.9 448.1 254.3 448 256.7V288H512V235.2C512 220.7 516.9 206.6 526 195.2L583 124C594.1 110.2 614.2 107.1 627.1 119C641.8 130.1 644 150.2 632.1 163.1L576 235.2V402.7L630.6 457.4C643.1 469.9 643.1 490.1 630.6 502.6C618.1 515.1 597.9 515.1 585.4 502.6L530.7 448C518.7 435.1 512 419.7 512 402.7V352H469.2C476.1 366.5 480 382.8 480 400C480 461.9 429.9 512 368 512H112C50.14 512 0 461.9 0 400C0 355.3 26.16 316.8 64 298.8V192C64 174.3 78.33 160 96 160H128V48C128 21.49 149.5 0 176 0H298.9C324.5 0 347.6 15.26 357.7 38.79L445.1 242.7C446.1 244.9 446.9 247.2 447.4 249.6H447.4zM298.9 64H192V160L256 224H367.5L298.9 64zM368 352H112C85.49 352 64 373.5 64 400C64 426.5 85.49 448 112 448H368C394.5 448 416 426.5 416 400C416 373.5 394.5 352 368 352z"/></svg>
